src/img/blueface.svg

<svg width="175" height="206" viewBox="0 0 175 206" fill="none" xmlns="http://www.w3.org/2000/svg">
<path d="M111.79 129.267C110.559 131.711 109.575 137.48 115.48 141M141.315 131.467C142.686 129.131 143.465 123.822 138.363 118.202M138.363 118.202C137.056 116.762 135.363 115.302 133.196 113.867C129.505 110.2 125.814 108.733 122.123 99.2C118.58 95.68 116.218 97.7333 115.48 99.2V121.2C115.972 122.667 112.528 127.8 94.8122 136.6C89.4976 138.36 79.8033 137.333 75.6205 136.6C74.3903 137.089 69.5678 133.813 60.1196 116.8H56.4289L52 105.8C59.8735 98.2222 83.1496 84.68 113.266 91.1333C114.25 91.8667 116.956 92.6 119.909 89.6667C123.6 86 133.934 75 149.435 75C161.836 75 167.396 75 168.626 75C169.857 75.4889 171.549 78.407 167.15 86C168.38 90.6444 168.922 102.72 161.245 113.867C158.292 117.973 144.76 118.468 138.363 118.202Z" stroke="#CCCCCC" stroke-width="1" stroke-linecap="round" stroke-linejoin="round"/>
<path d="M94.5032 83.1021C82.5022 82.0123 64.5006 89.9133 57 94C69.001 89.0959 86.0025 88.324 93.0031 88.5511C96.7534 87.1888 99.0036 85.1455 94.5032 83.1021Z" stroke="#CCCCCC" stroke-linecap="round" stroke-linejoin="round"/>
<path d="M70.6575 183.533C75.9346 180.019 74.8108 173.285 73.5892 170.357C62.5954 153.032 39.2884 117.944 34.0113 116.187C28.7342 114.43 25.9491 121.311 25.2162 124.971L23.0174 123.507C17.154 117.651 19.5971 112.771 21.5515 111.063C-2.63499 53.9649 51.6015 22.4879 55.2661 19.5598C58.1978 17.2173 58.4421 14.6797 58.1978 13.7036C61.1295 15.4605 60.3966 17.3638 59.6636 18.0958C107.744 -3.57213 135.399 19.8038 143.217 34.2003H130.024C136.132 41.5205 148.494 57.0394 149.081 60.5532C149.667 64.0669 149.325 71.7775 149.081 75.1936H158.609M70.6575 183.533C86.049 191.585 120.79 207.104 136.621 204.762C154.099 202.176 163.001 204.729 161.812 141.808M70.6575 183.533C65.3805 187.047 56.732 182.069 53.0674 179.141L25.2162 160.84V141.808C14.6621 126.582 11.5349 118.383 11.2907 116.187H5.42722C-2.14634 90.0781 -5.42007 32.5899 42.0735 11.5075C111.17 -19.291 146.017 24.7133 155.687 52.5009M156.41 54.697C156.187 53.9777 155.946 53.2451 155.687 52.5009M161.812 141.808C161.654 133.49 161.321 124.028 160.807 113.259C162.819 112.254 166.389 107.542 167.259 96.4224M161.812 141.808C163.676 142.052 167.404 141.954 167.404 139.612C167.404 136.684 174 106.671 174 102.279C174 98.7648 169.506 96.9104 167.259 96.4224M167.259 96.4224C167.445 94.041 166.744 89.6425 166.641 86.6468C167.259 84.4507 172.504 77.8625 168.137 75.1936H158.609M158.609 75.1936C158.615 72.0215 158.04 63.0421 155.687 52.5009M119.031 160.84C121.962 157.18 128.705 150.007 132.223 150.592C136.621 151.324 139.553 145.468 143.217 146.932C146.149 148.103 148.592 149.616 151.279 150.592C152.257 154.74 152.012 163.769 143.217 166.697C134.422 169.625 124.894 167.917 121.229 166.697" stroke="#CCCCCC" stroke-linecap="round" stroke-linejoin="round"/>
<path d="M145 72.8631C139.122 63.3947 127.857 69.9042 122.958 74.3425C121.979 75.822 120.901 79.2247 124.428 81C133.244 72.1234 141.816 71.8768 145 72.8631Z" stroke="#CCCCCC" stroke-linecap="round" stroke-linejoin="round"/>
<path d="M112.88 103.282C112.88 97.5526 110.146 96.359 109.152 96.1203C71.874 94.688 61.6845 106.385 64.4183 113.308C67.4005 119.276 74.2598 131.498 77.8385 132.644C82.3119 134.076 92.0043 134.792 95.7321 132.644C111.24 124.623 113.626 120.708 112.88 119.753V103.282Z" stroke="#CCCCCC" stroke-linecap="round" stroke-linejoin="round"/>
<path d="M123.897 90.5683C135.103 78.7207 154.125 78.227 162.235 79.4612C165.922 91.3088 165.922 97.973 162.235 107.599C158.549 117.225 140.117 117.225 135.693 114.263C125.371 106.118 120.948 95.0111 123.897 90.5683Z" stroke="#CCCCCC" stroke-linecap="round" stroke-linejoin="round"/>
</svg>

<svg width="175" height="206" fill="none" xmlns="http://www.w3.org/2000/svg"><path d="M111.79 129.267c-1.231 2.444-2.215 8.213 3.69 11.733m25.835-9.533c1.371-2.336 2.15-7.645-2.952-13.265m0 0c-1.307-1.44-3-2.9-5.167-4.335-3.691-3.667-7.382-5.134-11.073-14.667-3.543-3.52-5.905-1.467-6.643 0v22c.492 1.467-2.952 6.6-20.668 15.4-5.314 1.76-15.009.733-19.191 0-1.23.489-6.053-2.787-15.501-19.8h-3.691L52 105.8c7.873-7.578 31.15-21.12 61.266-14.667.984.734 3.69 1.467 6.643-1.466C123.6 86 133.934 75 149.435 75h19.191c1.231.489 2.923 3.407-1.476 11 1.23 4.644 1.772 16.72-5.905 27.867-2.953 4.106-16.485 4.601-22.882 4.335z" stroke="#CCC" stroke-linecap="round" stroke-linejoin="round"/><path d="M94.503 83.102C82.503 82.012 64.501 89.913 57 94c12.001-4.904 29.002-5.676 36.003-5.449 3.75-1.362 6-3.406 1.5-5.449z" stroke="#CCC" stroke-linecap="round" stroke-linejoin="round"/><path d="M70.657 183.533c5.278-3.514 4.154-10.248 2.932-13.176-10.994-17.325-34.3-52.413-39.578-54.17-5.277-1.757-8.062 5.124-8.795 8.784l-2.199-1.464c-5.863-5.856-3.42-10.736-1.465-12.444-24.187-57.098 30.05-88.575 33.714-91.503 2.932-2.343 3.176-4.88 2.932-5.856 2.931 1.756 2.199 3.66 1.466 4.392 48.08-21.668 75.735 1.708 83.553 16.104h-13.193c6.108 7.32 18.47 22.84 19.057 26.353.586 3.514.244 11.225 0 14.64h9.528m-87.952 108.34c15.392 8.052 50.133 23.571 65.964 21.229 17.478-2.586 26.38-.033 25.191-62.954m-91.155 41.725c-5.276 3.514-13.925-1.464-17.59-4.392l-27.85-18.301v-19.032c-10.555-15.226-13.682-23.425-13.926-25.621H5.427C-2.146 90.078-5.42 32.59 42.074 11.507 111.17-19.29 146.017 24.714 155.686 52.502m.723 2.196a67.47 67.47 0 00-.723-2.196m6.125 89.307c-.158-8.318-.491-17.78-1.005-28.549 2.012-1.005 5.582-5.717 6.452-16.837m-5.447 45.386c1.864.244 5.592.146 5.592-2.196 0-2.928 6.596-32.941 6.596-37.333 0-3.514-4.494-5.369-6.741-5.857m0 0c.186-2.381-.515-6.78-.618-9.775.618-2.196 5.863-8.785 1.496-11.453h-9.528m0 0c.006-3.172-.569-12.152-2.922-22.693M119.031 160.84c2.931-3.66 9.674-10.833 13.192-10.248 4.398.732 7.33-5.124 10.994-3.66 2.932 1.171 5.375 2.684 8.062 3.66.978 4.148.733 13.177-8.062 16.105-8.795 2.928-18.323 1.22-21.988 0" stroke="#CCC" stroke-linecap="round" stroke-linejoin="round"/><path d="M145 72.863c-5.878-9.468-17.143-2.959-22.042 1.48-.979 1.479-2.057 4.882 1.47 6.657 8.816-8.877 17.388-9.123 20.572-8.137zM112.88 103.282c0-5.73-2.734-6.923-3.728-7.162-37.278-1.432-47.468 10.265-44.734 17.188 2.982 5.968 9.842 18.19 13.42 19.336 4.474 1.432 14.166 2.148 17.894 0 15.508-8.021 17.894-11.936 17.148-12.891v-16.471zM123.897 90.568c11.206-11.847 30.228-12.341 38.338-11.107 3.687 11.848 3.687 18.512 0 28.138-3.686 9.626-22.118 9.626-26.542 6.664-10.322-8.145-14.745-19.252-11.796-23.695z" stroke="#CCC" stroke-linecap="round" stroke-linejoin="round"/></svg>
